X:32
T:One, Two, Three
M:2/4
L:1/8
N:Play AABA.
B:Thompson's Compleat Collection of 200 Favourite Country Dances, vol. 2 (London, 1765)
Z:Transcribed and edited by Flynn Titford-Mock, 2007
Z:abc's:AK/Fiddler's Companion
K:D
Ad2 c/B/ | AGFE | Adce | f2B2 | A d2 c/B/ | AGFE | Dd c/d/e/c/ | (d3 d2) :|
fdec | dBcA | GBAc | "tr"B2E2 | (A/B/c) (B/c/d) | (c/d/e) (d/e/f) | ea (^g/a/b/g/) | (a2 a2) |]

